X:1
T:Title
%%score [ ( 1 2 ) ( 3 4 ) ]
L:1/8
Q:1/4=180
M:3/4
K:C
V:1 treble-8 nm="Tenor I/II"
V:2 treble-8 
V:3 bass nm="Bass I/II"
V:4 bass 
V:1
"^Moderately slow" G2 | e4 c2 | ^d4 d2 | e4 c2 | e4 e2 | f4 f2 | d4 _e2 | =e4 d2 | c4 c2 | B4 ^A2 | %10
w: You|made me|what I|am to-|day, I|hope you're|sat- is-|­fied, _|_ You|dragged and|
w: ||||||||||
 B4 B2 | c4 d2 | e4 ^f2 | ^f4 f2 | ^f4 f2 | =f4!>(! !>!f2-!>)! | f4 f2 | e4 c2 | ^d4 d2 | e4 c2 | %20
w: dragged me|down un-|til my|soul with-|­in me|died; _|_ You've|shat- tered|each and|ev- 'ry|
w: |||||* Hm|_ _||||
 e4 e2 | f4 f2 | ^d4 d2 | e6- | e4 z2 | f2 f2 f2 | ^d4 d2 | g4 ^g2 | =g4 e^e | ^f2 f2 f2 | %30
w: dream, You|fooled me|from the|start,|_|though you're not|true, May|God bless|you, That's The|Curse Of An|
w: ||||||||||
"^rall." =f4 _e2 |"^Original ending:" =e6- | e4 |]"^Optional ending:" =e6- | e4 |] %35
w: Ach- ing|Heart.|_|Heart.|_|
w: |||||
V:2
 G2 | c4 E2 | B4 A2 | G4 E2 | C4 C2 | A4 C2 | _A4 C2 | G6- | G4 G2 | G4 ^C2 | D4 ^D2 | E4 F2 | %12
 G4 ^G2 | A4 B2 | d4 B2 | (A6 | G4) G2 | c4 E2 | B4 A2 | G4 E2 | C4 C2 | A4 A2 | B4 A2 | ^G6- | %24
 G4 ^G2 | A2 ^G2 A2 | B4 c2 | e4 B2 | A4 G^G | A2 c2 A2 | d4 c2 | c6- | c4 |] c6- | c4 |] %35
V:3
 G,2 | G,4 G,2 | ^F,4 F,2 | G,4 G,2 | _B,4 B,2 | C4 C2 | C4 _A,2 | (C4 B,2 | G,4) E,2 | D,4 G,2 | %10
w: ||||||||||
 G,4 G,2 | G,4 G,2 | C4 C2 | C4 D2 | C4 C2 | C4!>(! !>!D2-!>)! |!>(! D4 B,2!>)! | G,4 G,2 | %18
w: |||||* Hm|_ _||
 ^F,4 F,2 | G,4 G,2 | _B,4 B,2 | C4 C2 | A,4 B,2 | B,6- | B,4 z2 | C2 B,2 C2 | A,4 A,2 | C4 D2 | %28
w: ||||||||||
 ^C4 CC | =C2 A,2 C2 | (C2 B,2) _A,2 | =A,6- | A,4 |]"^glissando" G,6- | G,4 |] %35
w: |||||||
V:4
 G,2 | C,4 C,2 | C,4 C,2 | C,4 C,2 | G,4 G,2 | F,4 A,2 | F,4 F,2 | (C,4 F,2 | E,4) C,2 | %9
w: |||||||||
w: |||||||||
 G,,4 G,,2 | G,,4 G,,2 | C,4 C,2 | C,4 _E,2 | D,4 D,2 | A,4 D,2 | D,4 (!>!C2 | B,4) D,2 | C,4 C,2 | %18
w: |||||||||
w: ||||||* Hm|_ _||
 C,4 C,2 | C,4 C,2 | G,4 G,2 | F,4 F,2 | ^F,4 B,,2 | E,2 B,,2 =F,2 | E,4 x2 | F,2 F,2 F,2 | %26
w: ||||||||
w: |||||* from the|start,||
 ^F,4 F,2 | G,4 E,2 | E,4 A,,A,, | D,2 D,2 D,2 | (A,2 G,2) ^F,2 | G,6- | G,4 |] A,6 | C,4 |] %35
w: |||||||||
w: |||||||||

